svgs/light/podium.svg

<svg xmlns="http://www.w3.org/2000/svg" viewBox="0 0 448 512"><!-- Font Awesome Pro 6.0.0-alpha2 by @fontawesome - https://fontawesome.com License - https://fontawesome.com/license (Commercial License) --><path d="M432 160H96V144C96 104.25 125.25 71.375 163.375 65.25C170.25 83.25 187.625 96 208 96H270.387C294.793 96 316.541 78.465 319.604 54.25C323.307 24.969 300.557 0 272 0H208C186.625 0 168.75 14 162.5 33.375C107.125 40.125 64 86.875 64 144V160H16C7.199 160 0 167.199 0 176C0 184.797 7.199 192 16 192H432C440.801 192 448 184.797 448 176C448 167.199 440.801 160 432 160ZM208 32H272C280.875 32 288 39.125 288 48S280.875 64 272 64H208C199.125 64 192 56.875 192 48S199.125 32 208 32ZM385.812 224.094C376.703 223.188 369.094 229.438 368.109 238.188L341.891 468.875C341.156 475.219 335.562 480 328.875 480H119.125C112.437 480 106.844 475.219 106.109 468.875L79.891 238.188C78.906 229.438 71.219 223.219 62.188 224.094C53.406 225.094 47.109 233.031 48.109 241.812L74.328 472.5C76.891 495.031 96.141 512 119.125 512H328.875C351.859 512 371.109 495.031 373.672 472.5L399.891 241.812C400.891 233.031 394.594 225.094 385.812 224.094Z"/></svg>

<svg xmlns="http://www.w3.org/2000/svg" viewBox="0 0 448 512"><!--! Font Awesome Pro 6.0.0-alpha3 by @fontawesome - https://fontawesome.com License - https://fontawesome.com/license (Commercial License) --><path d="M432 160H96V144c0-39.75 29.25-72.63 67.38-78.75C170.3 83.25 187.6 96 208 96h62.39c24.41 0 46.15-17.54 49.22-41.75C323.3 24.97 300.6 0 272 0h-64C186.6 0 168.8 14 162.5 33.38C107.1 40.13 64 86.88 64 144V160H16C7.199 160 0 167.2 0 176C0 184.8 7.199 192 16 192h416C440.8 192 448 184.8 448 176C448 167.2 440.8 160 432 160zM208 32h64C280.9 32 288 39.13 288 48S280.9 64 272 64h-64C199.1 64 192 56.88 192 48S199.1 32 208 32zM385.8 224.1c-9.109-.9062-16.72 5.344-17.7 14.09l-26.22 230.7C341.2 475.2 335.6 480 328.9 480H119.1c-6.688 0-12.28-4.781-13.02-11.12L79.89 238.2C78.91 229.4 71.22 223.2 62.19 224.1C53.41 225.1 47.11 233 48.11 241.8l26.22 230.7C76.89 495 96.14 512 119.1 512h209.8c22.98 0 42.23-16.97 44.8-39.5l26.22-230.7C400.9 233 394.6 225.1 385.8 224.1z"/></svg>
